X:1104
T:Inch of Perth
P:Brig of Perth
C:Daniel Dow 1773
R:Strathspey (8x32)
B:RSCDS 11-4
Z:Anselm Lingnau <anselm@strathspey.org>
M:4/4
L:1/8
K:A
e|"A"A/B/c/d/ e>A "D"d>A f<A|"A"c>A e>c a>e c>e|\
  "A"A/B/c/d/ e>d c>e A<e|"G"B>d =G>B g>d B e|
  "A"A/B/c/d/ e>A "D"d>A f<A|"A"c>A e>c a>e c>e|\
  "A"A/B/c/d/ e>d c>e A<e|"G"B>d =G>B g>d B||
e|"A"A>a e>a c>a e<a|A<a e>f e>A c2|\
  A>a e>a c>a A>a|"G"=g>a d>g B>=G B2|
  "A"A>a e>a c>a e<a|A<a e>f e>A c2|\
  A>a g>a e>a c>a|"G"B>g d<g B>=G B|]

